aliba_games/img/sprite/bell.svg

<svg width="28" height="28" viewBox="0 0 28 28" fill="none" xmlns="http://www.w3.org/2000/svg">
<g clip-path="url(#clip0_307_483)">
<path d="M24.9421 19.7318C23.1781 18.2408 22.1666 16.0615 22.1666 13.7527V10.5C22.1666 6.3945 19.117 2.996 15.1666 2.42667V1.16667C15.1666 0.5215 14.644 0 14 0C13.356 0 12.8333 0.5215 12.8333 1.16667V2.42667C8.88181 2.996 5.83331 6.3945 5.83331 10.5V13.7527C5.83331 16.0615 4.82181 18.2408 3.04731 19.7412C2.59348 20.1297 2.33331 20.6943 2.33331 21.2917C2.33331 22.4175 3.24915 23.3333 4.37498 23.3333H23.625C24.7508 23.3333 25.6666 22.4175 25.6666 21.2917C25.6666 20.6943 25.4065 20.1297 24.9421 19.7318Z" fill="white"/>
<path d="M14 28C16.1128 28 17.8803 26.4938 18.2863 24.5H9.71362C10.1196 26.4938 11.8871 28 14 28Z" fill="white"/>
</g>
<defs>
<clipPath id="clip0_307_483">
<rect width="28" height="28" fill="white"/>
</clipPath>
</defs>
</svg>

<svg width="28" height="28" fill="none" xmlns="http://www.w3.org/2000/svg"><g clip-path="url(#clip0_307_483)" fill="#fff"><path d="M24.942 19.732a7.814 7.814 0 0 1-2.775-5.98V10.5c0-4.106-3.05-7.504-7-8.073v-1.26a1.166 1.166 0 1 0-2.334 0v1.26c-3.951.569-7 3.967-7 8.073v3.253a7.823 7.823 0 0 1-2.786 5.988 2.038 2.038 0 0 0-.714 1.55c0 1.127.916 2.042 2.042 2.042h19.25a2.044 2.044 0 0 0 2.042-2.041c0-.598-.26-1.162-.725-1.56zM14 28a4.382 4.382 0 0 0 4.286-3.5H9.714A4.382 4.382 0 0 0 14 28z"/></g><defs><clipPath id="clip0_307_483"><path fill="#fff" d="M0 0h28v28H0z"/></clipPath></defs></svg>
